svgs/sharp-regular/chart-simple.svg

<svg xmlns="http://www.w3.org/2000/svg" viewBox="0 0 448 512"><!--! Font Awesome Pro 6.6.0 by @fontawesome - https://fontawesome.com License - https://fontawesome.com/license (Commercial License) Copyright 2024 Fonticons, Inc. --><path d="M240 80l0 352-32 0 0-352 32 0zM208 32l-48 0 0 48 0 352 0 48 48 0 32 0 48 0 0-48 0-352 0-48-48 0-32 0zM80 272l0 160-32 0 0-160 32 0zM48 224L0 224l0 48L0 432l0 48 48 0 32 0 48 0 0-48 0-160 0-48-48 0-32 0zm320-80l32 0 0 288-32 0 0-288zM320 96l0 48 0 288 0 48 48 0 32 0 48 0 0-48 0-288 0-48-48 0-32 0-48 0z"/></svg>

<svg xmlns="http://www.w3.org/2000/svg" viewBox="0 0 448 512"><!--! Font Awesome Pro 6.4.2 by @fontawesome - https://fontawesome.com License - https://fontawesome.com/license (Commercial License) Copyright 2023 Fonticons, Inc. --><path d="M240 80V432H208V80h32zM208 32H160V80 432v48h48 32 48V432 80 32H240 208zM80 272V432H48V272H80zM48 224H0v48V432v48H48 80h48V432 272 224H80 48zm320-80h32V432H368V144zM320 96v48V432v48h48 32 48V432 144 96H400 368 320z"/></svg>
